X:691
T:Reel 691
M:4/4
K:Emin
L:1/8
G2BG DGBG|egfa gedB|G2BG DGBG|AcBA GEE2:|g2eg fgaf|gfeg fddf|g2eg fgaf|gfed Beef|gfge fgaf|gfga bgef|gfed efge|dBAG FDEF|
